src/icons/solid/media/upload.svg

<svg width="24" height="24" viewBox="0 0 24 24" fill="none" xmlns="http://www.w3.org/2000/svg">
<g clip-path="url(#clip0_1_3350)">
<path d="M22.4551 16.4127C22.7543 16.4128 23 16.6544 23 16.9478V18.7291C23 20.5319 21.5036 21.9994 19.665 21.9996H4.33496C2.49643 21.9994 1 20.5319 1 18.7291V16.9683C1.00011 16.675 1.24579 16.4343 1.54492 16.4341H2.98828C3.28753 16.4341 3.53309 16.6749 3.5332 16.9683V18.4048C3.53326 19.2118 3.80131 19.5992 5.27637 19.5992H18.7236C20.2094 19.5992 20.4667 19.2118 20.4668 18.4048V16.9576C20.4671 16.6643 20.7126 16.4234 21.0117 16.4234H22.4551V16.4127Z" fill="#1D1B20"/>
<path d="M12 3.30817C12.2138 3.30817 12.4275 3.40263 12.5771 3.54938V3.56012L16.7568 7.65778C16.992 7.88838 17.0668 8.24513 16.9385 8.53864C16.8102 8.83213 16.5111 9.0318 16.1797 9.0318H13.9131C13.8384 9.05286 13.7636 9.10508 13.7529 9.17828V14.8091C13.7529 15.6896 12.9728 16.4127 12 16.4127C11.0379 16.4126 10.2578 15.7104 10.2471 14.8404V9.16754C10.2363 9.09435 10.1616 9.04209 10.0869 9.02106H7.82031C7.48892 9.02106 7.1898 8.83188 7.06152 8.52789C6.93338 8.22397 7.00806 7.87856 7.24316 7.64801L11.4229 3.54938C11.5725 3.39215 11.7862 3.30817 12 3.30817Z" fill="#1D1B20"/>
</g>
<defs>
<clipPath id="clip0_1_3350">
<rect width="24" height="24" fill="white"/>
</clipPath>
</defs>
</svg>

<svg xmlns="http://www.w3.org/2000/svg" width="24" height="24" fill="none" viewBox="0 0 24 24"><g fill="currentColor" clip-path="url(#a)"><path d="M22.455 16.413c.3 0 .545.241.545.535v1.781c0 1.803-1.496 3.27-3.335 3.27H4.335C2.496 22 1 20.533 1 18.73v-1.76c0-.294.246-.535.545-.535h1.443c.3 0 .545.24.545.534v1.437c0 .807.268 1.194 1.743 1.194h13.448c1.485 0 1.743-.387 1.743-1.194v-1.447c0-.294.246-.535.545-.535h1.443zM12 3.308c.214 0 .428.095.577.241v.011l4.18 4.098a.8.8 0 0 1 .181.88.83.83 0 0 1-.758.494h-2.267c-.075.02-.15.073-.16.146v5.631c0 .88-.78 1.604-1.753 1.604-.962 0-1.742-.703-1.753-1.573V9.168c-.01-.074-.085-.126-.16-.147H7.82a.815.815 0 0 1-.758-.493.8.8 0 0 1 .181-.88l4.18-4.099A.8.8 0 0 1 12 3.31"/></g><defs><clipPath id="a"><path fill="currentColor" d="M0 0h24v24H0z"/></clipPath></defs></svg>
